TO KSIDE :L :D
  IF :D = 0 [FD :L STOP]
  KSIDE :L / 3 :D - 1
  LT 60
  KSIDE :L / 3 :D - 1
  RT 120
  KSIDE :L / 3 :D - 1
  LT 60
  KSIDE :L / 3 :D - 1
END
TO KOCHFLAKE :D
  REPEAT 3 [KSIDE 300 :D RT 120]
END
CS HT
PU SETXY -150 90 PD
SETPC 9
KOCHFLAKE 4
