TO RING :R :SIDES
  REPEAT :SIDES [FD :R RT 360 / :SIDES]
END
CS HT
REPEAT 12 [
  SETPC REMAINDER REPCOUNT 16
  RING 40 6
  RT 30
]
RT 15
REPEAT 12 [
  SETPC REMAINDER REPCOUNT 8 + 4
  RING 25 4
  RT 30
]
