TO TRI :SIZE :DEPTH
  IF :DEPTH = 0 [
    REPEAT 3 [FD :SIZE RT 120]
    STOP
  ]
  TRI :SIZE / 2 :DEPTH - 1
  FD :SIZE / 2
  TRI :SIZE / 2 :DEPTH - 1
  BK :SIZE / 2 RT 60 FD :SIZE / 2 LT 60
  TRI :SIZE / 2 :DEPTH - 1
  RT 60 BK :SIZE / 2 LT 60
END
CS HT
PU SETXY -200 -150 PD
SETPC 12
TRI 400 5
