TO FERN :SIZE :SIGN
  IF :SIZE < 1 [STOP]
  FD :SIZE
  RT 70 * :SIGN
  FERN :SIZE * 0.5 (-:SIGN)
  LT 70 * :SIGN
  FD :SIZE
  LT 70 * :SIGN
  FERN :SIZE * 0.5 :SIGN
  RT 70 * :SIGN
  FERN :SIZE * 0.85 :SIGN
  BK :SIZE * 2
END
CS HT
SETPC 2 SETPENWIDTH 1
SETH 0 PU BK 250 PD
FERN 30 1
