TO WHEEL
  REPEAT 36 [FD 2.5 RT 10]
END
TO CAR
  PU SETXY -130 -25 SETH 0 PD
  SETPC 4 SETPENWIDTH 2
  BOX 260 50
  PU SETXY -80 25 SETH 0 PD
  BOX 140 45
  SETPC 0
  PU SETXY -75 -30 SETH 0 PD
  WHEEL
  PU SETXY 75 -30 SETH 0 PD
  WHEEL
END
CS HT
CAR
