TO PETAL :LEN
  REPEAT 2 [
    REPEAT 60 [FD :LEN / 60 RT 3]
    RT 60
  ]
END
TO FLOWER
  ; petals
  SETPC 13
  REPEAT 8 [PETAL 100 RT 45]
  ; stem
  PU SETH 180 FD 30 PD
  SETPC 2 SETPENWIDTH 4
  FD 150
END
CS HT
FLOWER
