TO PEAK :S
  LT 60 FD :S RT 120 FD :S LT 60
END
CS HT
SETPENWIDTH 2
PU SETXY -350 -100 SETH 90 PD
; Far range (blue)
SETPC 9
REPEAT 5 [PEAK 80]
PU SETXY -350 -100 SETH 90 PD
; Front range (darker)
SETPC 1
PU FD 60 PD
REPEAT 4 [PEAK 100]
; Ground
PU SETXY -380 -100 SETH 90 PD
SETPC 2
FD 760
